X:1
T:A minor Samuel Babcock, 1803
T:Nahum Tate and Nicholas Brady, 1698  (Psalm 120)  88. 88. 88.
T:Crete
T:Transcribed from The Middlesex Harmony, 1803.
%%score [ 1 2 3 ]
L:1/8
Q:1/4=120
M:2/4
K:C
V:1 treble nm="Tr." snm="Tr."
V:2 treble-8 nm="T." snm="T."
V:3 bass nm="B." snm="B."
V:1
 c2 | c2 d2 | e3 e | e2 d2 | c3 e | c2 c2 | c3 c | c2 BA | ^G3 c | c2 d2 | e3 c | d2 d2 | e4 |: %13
w: 1.~In|deep dis-|tress I|oft have|cried To|God, who|ne- ver|yet de- *|nied To|res- cue|me, op-|pressed with|wrongs.|
w: 2.~What|lit- tle|pro- fit|can ac-|crue? And|yet what|hea- vy|wrath is *|due, O|thou per-|fid- ious|tongue! To|thee?|
 z2 e2 | c2 c2 | c3 c | cB A2 | ^G3 e | c2 c2 | c3 c | cB A2 | ^G3 e | cd ed | c2 c2 | cf ed | %25
w: Once|more, O|Lord, de-|liv- * erance|send. From|ly- ing|lips my|soul * de-|fend, And|from * the *|rage of|slan- * dering *|
w: Thy|sting up-|on thy-|self * shall|turn. Of|las- ting|flames that|fier- * cely|burn, The|con- * stant *|fuel sure-|ly * thou *|
 e3 e | cd cB | cd cB | cB A^G | A4 :| %30
w: tongues, And|from * the *|rage * of *|slan- * dering *|tongues.|
w: be. The|con- * stant *|fuel * sure- *|ly * thou *|be.|
V:2
 A2 | E2 ^G2 | A3 c | B2 B2 | c3 c | e2 e2 | e3 e | e2 dc | B3 E | E2 ^G2 | A3 c | B2 B2 | c4 |: %13
w: 3.~But|O! how|wret- ched|is my|doom, Who|am a|so- jour-|ner be- *|come In|bar- ren|Me- sech's|des- ert|soil!|
w: 4.~My|ha- pless|dwel- ling|is with|those Who|peace and|a- mi-|ty op- *|pose, And|plea- sure|take in|oth- ers'|harm.:|
 z2 c2 | e2 e2 | e3 f | ed c2 | B3 c | e2 e2 | e3 a | ed c2 | B3 c | ed cd | e2 e2 | ed cB | c3 c | %26
w: With|Ke- dar's|wick- ed|tents * en-|closed. To|law- less|sa- va-|ges * ex-|posed, Who|live * on *|naught but|theft * and *|spoil, Who|
w: Sweet|peace is|all I|court * and|seek; But|when to|them of|peace * I|speak, They|strait * cry *|out, "To|arms! * To *|arms!" They|
 ef ed | ef ed | ed cB | A4 :| %30
w: live * on *|naught * but *|theft * and *|spoil.|
w: strait * cry *|out, * "To *|arms! * To *|arms!"|
V:3
 A,,2 | C,2 B,,2 | A,,2 A,2 | E,2 G,2 | C,3 C, | C,2 C,2 | C,2 C,2 | C,2 D,2 | E,3 E, | C,2 B,,2 | %10
 A,,2 A,2 | G,2 G,,2 | C,4 |: z2 C,2 | C2 C2 | C3 C | G,2 A,2 | E,3 C, | C,2 C,2 | C,3 C | %20
 G,2 A,2 | E,3 E, | C,2 C,2 | C,2 C,2 | E,F, G,2 | C,3 C, | A,,2 A,,B,, | C,3 D, | E,2 E,2 | %29
 A,,4 :| %30

